X:1
T:[ID 5-53a]
T:[ID 5-53a]
T:Bezeichnung standardisiert: Menuett Menuet
T:Urheber unbekannt Erstbeleg: 1773 (Datum in der schriftlichen Quelle) Datum in der hier transkribierten schriftlichen Quelle: 1799
C:Urheber unbekannt
C:Erstbeleg: 1773 (Datum in der schriftlichen Quelle)
C:Datum in der hier transkribierten schriftlichen Quelle: 1799
%%score 1 2
L:1/8
M:3/4
K:D
V:1 treble nm="Primo"
V:2 treble nm="Secondo"
V:1
 defdge | a4 fd | bagfed | cdec A2 | defdge | a4 fd | bagfed | d6 :: agabaf | e2 f2 g2 | agabaf | %11
 e2 f2 g2 | defdge | a4 fd | bagfed | d6 :| %16
V:2
 !fermata!FGAFec | f4 dF | gfedcB | ABcA C2 | FGAFec | f4 dF | gedGFE | F6 :: fefgfd | c2 d2 e2 | %10
 fefgfd | c2 d2 e2 | FGAFcA | f4 dF | gedGFE | F6 :| %16

